/* XPM */
static char *_eb0e358ddd342f4ac8eed2b752b6ccak1HOmv264kpywb3v[] = {
/* columns rows colors chars-per-pixel */
"64 64 161 2 ",
"   c #4E6338",
".  c #414141",
"X  c gray26",
"o  c #4C4C4C",
"O  c gray33",
"+  c #585858",
"@  c gray39",
"#  c #646464",
"$  c #656565",
"%  c #656566",
"&  c #686868",
"*  c DimGray",
"=  c #6A6A6A",
"-  c #6A6A6B",
";  c #6C6C6C",
":  c gray44",
">  c #727273",
",  c gray45",
"<  c #737374",
"1  c #757576",
"2  c #777778",
"3  c gray47",
"4  c #797979",
"5  c gray48",
"6  c #7B7B7B",
"7  c #7B7B7C",
"8  c #7C7C7C",
"9  c #7C7C7D",
"0  c gray49",
"q  c #7E7E7E",
"w  c #7E7E7F",
"e  c #7F7F80",
"r  c #808080",
"t  c #808081",
"y  c #818181",
"u  c gray51",
"i  c #828283",
"p  c #838383",
"a  c #838384",
"s  c #848484",
"d  c #848485",
"f  c gray52",
"g  c #868686",
"h  c #868687",
"j  c gray53",
"k  c #878788",
"l  c #89898A",
"z  c #8A8A8B",
"x  c #8B8B8B",
"c  c #8B8B8C",
"v  c #8C8C8D",
"b  c #8D8D8D",
"n  c #8D8D8E",
"m  c #8E8E8E",
"M  c #8E8E8F",
"N  c gray56",
"B  c #8F8F90",
"V  c #909090",
"C  c gray57",
"Z  c #919192",
"A  c #929292",
"S  c #929293",
"D  c #939393",
"F  c #939394",
"G  c gray58",
"H  c #949495",
"J  c #959596",
"K  c #989898",
"L  c #989899",
"P  c gray60",
"I  c #99999A",
"U  c #9A9A9A",
"Y  c #9A9A9B",
"T  c #9B9B9C",
"R  c gray61",
"E  c #9C9C9D",
"W  c #9D9D9D",
"Q  c #9D9D9E",
"!  c gray62",
"~  c #9F9F9F",
"^  c #A0A0A0",
"/  c #A1A1A2",
"(  c #A2A2A2",
")  c #A4A4A5",
"_  c #A5A5A5",
"`  c #A5A5A6",
"'  c gray66",
"]  c #A9A9AA",
"[  c #AAAAAB",
"{  c gray67",
"}  c gray68",
"|  c #ADADAE",
" . c #AEAEAE",
".. c #AFAFB0",
"X. c #B0B0B1",
"o. c #B1B1B1",
"O. c #B1B1B2",
"+. c #B2B2B3",
"@. c #B3B3B4",
"#. c #B4B4B4",
"$. c #B4B4B5",
"%. c gray71",
"&. c #B5B5B6",
"*. c #B6B6B6",
"=. c #B6B6B7",
"-. c #B7B7B7",
";. c #B7B7B8",
":. c #B9B9BA",
">. c #BABABB",
",. c #BDBDBE",
"<. c #BEBEBF",
"1. c #C0C0C1",
"2. c #C1C1C2",
"3. c #C2C2C3",
"4. c #C4C4C5",
"5. c #C5C5C5",
"6. c #C5C5C6",
"7. c #C6C6C7",
"8. c gray78",
"9. c #C9C9CA",
"0. c #CACACA",
"q. c #CACACB",
"w. c #CBCBCC",
"e. c #CCCCCD",
"r. c #CECECF",
"t. c #CFCFD0",
"y. c #D0D0D0",
"u. c #D0D0D1",
"i. c #D1D1D2",
"p. c #D2D2D3",
"a. c LightGray",
"s. c #D4D4D5",
"d. c #D5D5D6",
"f. c #D6D6D7",
"g. c #D7D7D8",
"h. c #D8D8D8",
"j. c #D8D8D9",
"k. c #D9D9DA",
"l. c #DADADB",
"z. c #DBDBDC",
"x. c #DCDCDD",
"c. c #DDDDDE",
"v. c #DEDEDF",
"b. c #E1E1E2",
"n. c #ECECED",
"m. c #EFEFF0",
"M. c #F0F0F1",
"N. c #F1F1F2",
"B. c #F3F3F4",
"V. c #F4F4F5",
"C. c #F5F5F6",
"Z. c #F7F7F8",
"A. c #F8F8F9",
"S. c #F9F9FA",
"D. c #FAFAFB",
"F. c #FBFBFC",
"G. c #FCFCFD",
"H. c #FDFDFE",
"J. c #FDFDFF",
"K. c #FEFEFF",
"L. c white",
/* pixels */
"                                                                                                                                ",
"                                                                                                                                ",
"                                                                                                                                ",
"                                                                                                                                ",
"                                                                                                                                ",
"                                                                                                                                ",
"                                                                                                                                ",
"                                                                                                                                ",
"                                                                                                                                ",
"                                                                                                                                ",
"                                                                                                                                ",
"                                                                                                                                ",
"                                                                                                                                ",
"                                                                                                                                ",
"                                                                                                                                ",
"                                                                                                                                ",
"                                                                                                                                ",
"                                                                                                                                ",
"                                                            w =.=.d                                                             ",
"                                                            P J.J./                                                             ",
"                                                            G D.J.E                                                             ",
"                                                            / J.J.'                                                             ",
"                                                          O 2.J.J.q.+       o                                                   ",
"                                                  B 2.O.=.y.C.F.F.Z.y.=.O.2.G                                                   ",
"                                                  ' J.J.J.J.F.F.F.F.J.J.J.J.O.                                                  ",
"                                                  ) B.n.m.D.J.F.F.J.D.N.n.B.|                                                   ",
"                                                  & w < 4 M x.J.J.b.S 4 : w &                                                   ",
"                                                            ' J.J.=.                                                            ",
"                                    .                       G D.J.E                                                             ",
"                                    .                       d C.D.M                                                             ",
"                              .     .     .                 w N.C.d                 .           .                               ",
"                                .   .                       4 m.C.r                   .       .                                 ",
"                                        .                   7 N.C.d                                                             ",
"                                  . .                       r C.D.c                     .   .                                   ",
"                                  . . .                     S J.J.P                     . . .                                   ",
"                                  . . .                     w 2.2.d                     . . .                                   ",
"                          $ M S S S S S S S S S S S S S S S S F F S S S S S S S S S S S S S S S S M &                           ",
"                          S ,.,.,.,.,.,.,.,.,.,.,.,.,.,.,.,.,.,.,.,.,.,.,.,.,.,.,.,.,.,.,.,.,.,.,.,.P                           ",
"                          M ..| | | | | | | | | | | | | | | | | | | | | | | | | | | | | | | | | | ..G                           ",
"                    @ w w d z z z z z z z c c c z z z z z z z M M c z z z z z z z z z z z z z z z z d w w $                     ",
"                  e 5.f.g.g.g.g.g.g.f.y.e.q.5.5.f.g.g.g.g.g.y.O.O.w.k.g.g.g.g.g.g.g.g.g.g.g.k.g.g.g.g.g.f.5.d                   ",
"                $ 5.z.k.k.k.k.k.k.k.t.r d M M E f.k.k.k.k.k.y.) : ,.x.k.k.k.k.k.k.k.k.k.k.y.=.k.k.k.k.k.k.z.q.&                 ",
"                w f.k.k.k.k.k.k.k.k.k.E P f.g.k.k.k.k.k.k.k.z.;.w ' T z / k.k.k.k.k.k.k.z.=.P z.z.z.k.k.k.k.k.a                 ",
"                r g.k.k.k.k.k.k.k.z.z.t.r =.z.k.k.k.k.k.k.k.k.' M ) =.:.z f.z.k.k.k.k.k.z.E r P P | k.k.k.k.k.d                 ",
"                r k.z.z.z.z.z.k.e.=.E B M :.x.z.z.z.z.z.z.z.z.z.x.x.x.k.S T 2.g.z.z.z.z.z.y.2.,.S G x.z.z.z.z.k                 ",
"                : O.=.@.=.O.E 4 & 2 S ) O.=.@.@.@.@.@.@.@.@.@.=.=.@.@.=.' z ; 4 ) =.=.@.@.=.=.@.4 / =.@.@.=.@.1                 ",
"                                                                                                                                ",
"                                                                                                                                ",
"                                                                                                                                ",
"                                                                                                                                ",
"                                                                                                                                ",
"                                                                                                                                ",
"                                                                                                                                ",
"                                                                                                                                ",
"                                                                                                                                ",
"                                                                                                                                ",
"                                                                                                                                ",
"                                                                                                                                ",
"                                                                                                                                ",
"                                                                                                                                ",
"                                                                                                                                ",
"                                                                                                                                ",
"                                                                                                                                ",
"                                                                                                                                "
};
