/* XPM */
static char *_0c78449b4d54a70e43bceb084258f7749MI1LlqmYh7Vfr8[] = {
/* columns rows colors chars-per-pixel */
"64 64 86 1 ",
"  c #37232F",
". c #372330",
"X c #3D2631",
"o c #3F2831",
"O c #442A32",
"+ c #4B2D33",
"@ c #4F3135",
"# c #4E383D",
"$ c #553336",
"% c #5E3536",
"& c #553639",
"* c #593738",
"= c #553C3F",
"- c #5B3A3B",
"; c #603636",
": c #673937",
"> c #693937",
", c #633C3A",
"< c #6D3B38",
"1 c #733E39",
"2 c #6B413C",
"3 c #75423B",
"4 c #7B443C",
"5 c #78483F",
"6 c #5A4344",
"7 c #7C4B41",
"8 c #73504A",
"9 c #6E5B57",
"0 c #80473D",
"q c #834A3F",
"w c #824E41",
"e c #835043",
"r c #8D5243",
"t c #86594B",
"y c #915343",
"u c #975845",
"i c #985845",
"p c #9C5E49",
"a c #95604D",
"s c #8D6757",
"d c #8D6D5E",
"f c #A5634B",
"g c #AA654B",
"h c #AF694D",
"j c #B56C4E",
"k c #B96E4F",
"l c #A26550",
"z c #AD6C51",
"x c #B56F52",
"c c #B86F50",
"v c #AD795F",
"b c #B67153",
"n c #B97050",
"m c #BE7251",
"M c #BB7556",
"N c #BC7555",
"B c #B0755A",
"V c #B2795E",
"C c #B8795B",
"Z c #8E7A6C",
"A c #967C6B",
"S c #967F6E",
"D c #C07D5D",
"F c #A1826D",
"G c #B88467",
"H c #BD8B6C",
"J c #C3815F",
"K c #C48765",
"L c #C38C6B",
"P c #C48F6E",
"I c #C88F6C",
"U c #C7906E",
"Y c #CB916D",
"T c #CA9270",
"R c #C99775",
"E c #CF9C77",
"W c #C19778",
"Q c #CC9D7A",
"! c #C2AB8D",
"~ c #CEAC8A",
"^ c #CFAD8A",
"/ c #D6AC86",
"( c #D9AE87",
") c #DAB38C",
"_ c #CFB290",
"` c #DCB993",
/* pixels */
"mmmncccccccccccccccccccccccjjjkmmnccccccccccccccccccccccckjjjjcc",
"hhjjccccccccccccccccccccccnnMMbjhjcccccccccccccccccccccccnMMMnnc",
"rrphnmnnnnnnnnnnnnnnnnnnnknJYPvayfjmmnnnnnnnnnnnnnnnnnnknNKTIDnj",
"*,wfnmnnnnnnnnnnnnnnnnnnkkNY(^F82rhmmnnnnnnnnnnnnnnnnnnkcDE)/IMj",
"X+,rghhhhhhhhhhhhhhhhhhhggxU)_S6$3phhhjhhhhhhhhhhhhhhhhghCQ`)TMj",
" o$2wruiiuuuuuuuuuuuuuuuuupVRWd=O*5eyuiiuuuuuuuuuuuuuuuuulGQEKMj",
"XXO+*:34044444444444444444qpBBt&oO$-<40444444444444444444rlCDNnk",
"XXXXO$>11111111111111111113rggw*X.X+%<11111111111111111114uhcncc",
"XoXXO$>11111111111111111<<3rgfw$X X+%<11111111111111111<14ugkkcc",
"XoXXO$<11111111111111111113yggw$XXX+%<11111111111111111114uhnncc",
"XXXXO$<11111111111111111113ygge*X.X+%<11111111111111111114uhnncc",
"XXXXO$<11111111111111111113yggw*X.X+%<11111111111111111114uhnncc",
"XXXXO$<11111111111111111113rgge*XXX+%<11111111111111111114uhnncc",
"XXXXO$<11111111111111111113rgge*XXX+%<11111111111111111114uhnncc",
"XXXXO$<11111111111111111113rgge$XXX+%<11111111111111111114uhnncc",
"XXXXO$<11111111111111111113ygge*XXX+%<11111111111111111114uhnncc",
"XXXXO$<11111111111111111113ygge*XXX+%<11111111111111111114uhnncc",
"XXXXO$<11111111111111111113ygge*XXX+%<11111111111111111114uhnncc",
"XXXXO$<11111111111111111113ygge*X.X+%<11111111111111111114uhnncc",
"XXXXO$<11111111111111111113ygge*X.X+%<11111111111111111114uhnncc",
"XXXXO$<11111111111111111113yggw$XXX+%<11111111111111111114uhnncc",
"XXXXO$<11111111111111111113ygge$XXX+%<11111111111111111114uhnncc",
"XXXXO$<11111111111111111113ygge$XXX+;111111111111111111114uhnncc",
"XXXXO$<11111111111111111113ygge*XXX+%111111111111111111114uhnncc",
"XXXXO$<11111111111111111113ygge*XXX+;111111111111111111114ihnncc",
"XXXXO$<13111111111111111113ygge*XXX+%131111111111111111110ihnncc",
"XXXXO$:111<<<<111<11<<<<<<1rgge*XXX+%<11<<11<<<<<<<<<11<<4uhnncc",
"XXXXO+$;;%%%%%;;%%%%%%%%%%:wfge*XXXO$%;;%%;;%%%%%%%%%;;%%<yhmmcc",
"XXXXOO+++++++++++++++++++O$5fge*XXXOO++++++++++++++++++++-ehmmcc",
"XXXXXXXXXXXXXXXXXXXXXXXXXXO2yp7$XXXXXXXXXXXXXXXXXXXXXXXXX$5phjcc",
"XXXXXXXXXX.X..XXXXXXXXXX  X$23,+XXXXX.XXXXXXXX....XXXXX .O*3rfjn",
"XXXXXXXXXXXXXXXXXXXXXXXXXXXO+@+OXXXXXXXXXXXXXXXXXXXXXXXXXoO$2yjm",
"XO+@******$$$*********$$$*&=66#OO+$*******$$$*********$$$&=68ajm",
"XO*3eeeeeeeweeeeeeeeeeewwwesAZ9#+,7eeeeeeeeweeeeeeeeeewwwtdSFvbk",
"X+,rfhgggggggggggggggggggfzH^!Z6@3pggggggggggggggggggggfgBW_^PMj",
"XO,epfggggggggggggggggggggzL(^A6+2yffggggggggggggggggggfgBR)(YMj",
"XO$,3wryyyyyrrryyyyyyyyyrruzLHs=O$25wryyyyyyrrryyyyyyyyrrpVUYJnj",
"XXoO+%<33333333333333333334uzze&XXO$:33333333333333333333qpxNnnc",
"XXXXO$:11111111111111111<<3rgfw*X XO%<11111111111111111<14ugkkcc",
"XoXXO$>111111111111111111<3rggw*X X+%<11111111111111111<14ugkncc",
"XXXXO$<11111111111111111113ygge*XXX+;111111111111111111114uhnncc",
"XXXXO$<11111111111111111113rgge*X.X+;111111111111111111114uhnncc",
"XXXXO$<11111111111111111113rgge*XXX+;111111111111111111114uhnncc",
"XXXXO$<11111111111111111113rgge$XXX+%111111111111111111114uhnncc",
"XXXXO$<11111111111111111113yggw$XXX+%<11111111111111111114uhnncc",
"XXXXO$<11111111111111111113ygge$XXX+%<11111111111111111114uhnncc",
"XXXXO$<11111111111111111113ygge*X.X+%<11111111111111111114uhnncc",
"XXXXO$<11111111111111111113ygge*X.X+%<11111111111111111114uhnncc",
"XXXXO$<11111111111111111113ygge*XXX+%<11111111111111111114uhnncc",
"XXXXO$<11111111111111111113ygge*X.X+%<11111111111111111114uhnncc",
"XXXXO$<11111111111111111113yggw*XXX+%<11111111111111111114uhnncc",
"XXXXO$<11111111111111111113ygge*XXX+%<11111111111111111114uhnncc",
"XXXXO$<11111111111111111113ygge*XXX+%111111111111111111114uhnncc",
"XXXXO$<11111111111111111113ygge*XXX+;111111111111111111114uhnncc",
"XXXXO$<11111111111111111113rgge*XXX+%111111111111111111114uhnncc",
"XXXXO$<11111111111111111113ygge*XXX+;131111111111111111110ihnncc",
"XXXXO$<11111111111111111113ygge*XXX+;111111111111111111114ihnncc",
"XXXXO$;<<<<<<<<<<<<<<<<<>>1rgge*XXX+$><<<<<<<<<<<<<<<<<>>3uhnncc",
"XXXXO+$$$$$$$$$$$$$$$$$$$$%wfge*XXXO+$$$$$$$$$$$$$$$$$$$$:rhmmcc",
"XXXXOOOOOOOOOOOOOOOOOOOOOO+3pfe*XXXoOOOOOOOOOOOOOOOOOOOOO*wgnncc",
"XXXXXXXXXXXXXXXXXXXXXXXXXXO,er3@XXXXXXXXXXXXXXXXXXXXXXXXX+2rfhjn",
"XXXXXXXXXXXXXXXXXXXXXXXXXXO$,,*+XXXXXXXXXXXXXXXXXXXXXXXXXO$,wpjm",
"XXXXXXXXXXXXXXXXXXXXXXXXXXXOO+OoXXXXXXXXXXXXXXXXXXXXXXXXXXo+,rhm",
"XXXXXXXXXXXXXXXXXXXXXXXXXXXXXXXXXXXXXXXXXXXXXXXXXXXXXXXXXX X*rhm"
};
