/* XPM */
static char *ed0ed13237fe48739a79e3a51bbc1615ENhIawAzNnHgDnFM[] = {
/* columns rows colors chars-per-pixel */
"64 64 188 2 ",
"   c #4E6338",
".  c ##4E6338",
"X  c #1F2641",
"o  c #242943",
"O  c #292D46",
"+  c #2B3451",
"@  c #2B3659",
"#  c #303550",
"$  c #353D5E",
"%  c #383F5D",
"&  c #2F3C60",
"*  c #4E3A47",
"=  c #563B45",
"-  c #3A4466",
";  c #334268",
":  c #394468",
">  c #334067",
",  c #584649",
"<  c #534A57",
"1  c #55515F",
"2  c #61474E",
"3  c #694F55",
"4  c #695155",
"5  c #6B5C59",
"6  c #655754",
"7  c #6B605A",
"8  c #56596B",
"9  c #8E4538",
"0  c #BB442A",
"q  c #B05538",
"w  c #B0633B",
"e  c #B1693D",
"r  c #E05E1F",
"t  c #ED6A1F",
"y  c #FD761F",
"u  c #C64E2A",
"i  c #D25424",
"p  c #DC5E25",
"a  c #D45C2B",
"s  c #D35826",
"d  c #C45336",
"f  c #C95E3B",
"g  c #C85836",
"h  c #C75427",
"j  c #D6622A",
"k  c #DB652B",
"l  c #DC6727",
"z  c #CB613C",
"x  c #DA6531",
"c  c #D76739",
"v  c #DD7632",
"b  c #E46423",
"n  c #E86722",
"m  c #E56925",
"M  c #E96A23",
"N  c #F06F21",
"B  c #EA7327",
"V  c #EF7B26",
"C  c #EC7A2A",
"Z  c #E77427",
"A  c #F77522",
"S  c #FA7621",
"D  c #F77923",
"F  c #F97C24",
"G  c #F47D28",
"H  c #E37B32",
"J  c #E3773B",
"K  c #8C5C5A",
"L  c #986249",
"P  c #A16B42",
"I  c #AD7D45",
"U  c #B47742",
"Y  c #987064",
"T  c #C86244",
"R  c #D36F42",
"E  c #D16D4A",
"W  c #CE7449",
"Q  c #D47144",
"!  c #D97B47",
"~  c #D67349",
"^  c #CB775F",
"/  c #CA7B6A",
"(  c #C77967",
")  c #DB823B",
"_  c #EB862D",
"`  c #F78327",
"'  c #F98326",
"]  c #FE8B26",
"[  c #F08B2F",
"{  c #FA8C29",
"}  c #F98728",
"|  c #EF912F",
" . c #F6922E",
".. c #FB942C",
"X. c #FB952C",
"o. c #FB972C",
"O. c #FB932B",
"+. c #FB992D",
"@. c #FC9C2E",
"#. c #FC9F2F",
"$. c #FF9D2C",
"%. c #FD9B2D",
"&. c #E48336",
"*. c #ED8431",
"=. c #F08E30",
"-. c #EF9B34",
";. c #EB9636",
":. c #F39A34",
">. c #F59731",
",. c #FEA12E",
"<. c #F0A537",
"1. c #FCA130",
"2. c #FDA230",
"3. c #FDA531",
"4. c #FDA732",
"5. c #FDA631",
"6. c #FDA531",
"7. c #FDA832",
"8. c #FEAB33",
"9. c #FEAE34",
"0. c #FEAB33",
"q. c #F1A838",
"w. c #FEB135",
"e. c #FFB336",
"r. c #B58A48",
"t. c #B48446",
"y. c #D3825C",
"u. c #DA8457",
"i. c #CE826E",
"p. c #D3866F",
"a. c #D08671",
"s. c #D48B72",
"d. c #D48E79",
"f. c #CE9073",
"g. c #D69375",
"h. c #DA9475",
"j. c #D5927C",
"k. c #9A8687",
"l. c #9F9CA3",
"z. c #A09FA6",
"x. c #A0A0A7",
"c. c #A0A1A9",
"v. c #D79D82",
"b. c #DEAB85",
"n. c #D7A89B",
"m. c #D8A999",
"M. c #CFAEA6",
"N. c #DBB6AD",
"B. c #DDB9AE",
"V. c #D9B3A7",
"C. c #DEBCB2",
"Z. c #D9AEA4",
"A. c #E0BFB2",
"S. c #E1BCAA",
"D. c #DFC2B2",
"F. c #E4C6A5",
"G. c #E5C8A7",
"H. c #EAD5AC",
"J. c #EAD2A4",
"K. c #E3C2B5",
"L. c #EAD7B2",
"P. c #EAD8B6",
"I. c #EADABB",
"U. c #DFC7C1",
"Y. c #DCD8D6",
"T. c #DCD9D6",
"R. c #E2CFC9",
"E. c #E0C8C2",
"W. c #E7D6C2",
"Q. c #E7D8C4",
"!. c #EADCC3",
"~. c #E5D5CC",
"^. c #E9DECB",
"/. c #E8DFD7",
"(. c #E8DFD9",
"). c #E6DBD6",
"_. c #EEE1C7",
"`. c #ECE2CD",
"'. c #E9E2D4",
"]. c #E9E3DC",
"[. c #EFE8D9",
"{. c #F0E6D6",
"}. c #F0E8DB",
"|. c #F0E7D9",
" X c #E9E5E2",
".X c #ECE9E5",
"XX c #EBEBE9",
"oX c #F0EBE3",
/* pixels */
"                                                                                                                                ",
"                                                                                                                                ",
"                                                                                                                                ",
"                                                                                                                                ",
"                                                                                                                                ",
"                                                                                                                                ",
"                                                                                                                                ",
"                                                                                                                                ",
"                                                                                                                                ",
"                                                                                                                                ",
"                                                                                                                                ",
"                                                                                                                                ",
"                                                                                                                                ",
"                                                                                                                                ",
"                                                                                                                                ",
"                                                                                                                                ",
"                                                                                                                                ",
"                                                                                                                                ",
"                                                                                                                                ",
"                          A A A A A F X.7.5.O.F S y B w 4 - ; : : ; - 4 w B S S A A A F O.7.5.O.F A A                           ",
"                      A A A A A A A F X.5.2.{ F S y B w 4 - ; : : ; - 4 w B S S A A A F O.5.2.{ F A A A A                       ",
"                      F A A A A D F } X.#.+.} D S y B w 4 - ; : : ; - 4 w B S S A D F ' X.#.+.} D A A A F                       ",
"                  9.%.' D A A D ' O.X.X.{ } F D S S B w 4 - ; : : ; - 4 w B S S D ` { X.X.{ } ` D A A D ' +.0.                  ",
"                w.7.#.} D A A F { #.2.O.` D A A S S B w 4 - ; : : ; - 4 w B y S D { #.2.X.` D A A A A D } #.9.w.                ",
"                2.#.X.' D A A F O.5.7.X.F A A A S S B w 4 - ; : : ; - 4 w B y S D { 5.7.X.F A A A A A D } 2.0.5.                ",
"            9.5.X.} ' F A A A D O.5.7.X.F A A A S y B w 4 - ; : : ; - 4 w B y S D { 5.7.X.F A A A A A D } 2.7.#.' A             ",
"            9.5.O.F A A A A A F O.2.2.O.F A A A D S B e 4 - ; : : ; - 4 w B S D F { 2.2.O.F A A A A A F { #.5.X.` A             ",
"          ,.0.5.O.F A A A F ' { O.X.X.} F A A A F ] _ U 4 - ; : : ; - 4 w B F ] { O.X.X.} F A A A F ` } O.X.X.} F A A           ",
"      A F X.7.5.O.F A A D ' X.#.X.} ` F A A A A ] O.-.I 5 - ; : : ; - 4 w B ] O.#.X.} ` F D A A A ` O.#.+.{ ` F D A A A A       ",
"      F ` O.2.#.{ F A A D } ,.5.+.` A A A A A D ] #.<.r.5 - ; : : ; - 4 w B ] ,.5.+.` A A A A A A ' #.5.#.' D A A A A A A       ",
"      { O.O.O.{ ' D A A A } 2.7.+.` A A A A A A ] ,.q.r.7 - ; : : ; - 3 w B ] ,.7.%.` A A A A A A ' #.7.#.' A A A A A A A       ",
"      5.#.X.' F D A A A D } 2.7.+.` A A S S A A ] ,.<.r.7 - ; : : ; - 3 w B ] ,.7.+.` A A A A A A ' #.7.#.' A A A A A A A       ",
"      w.5.X.F A A A D F ` { #.#.O.` A A A D D ` { $.:.t.5 - ; : : ; - 4 e C ] #.#.O.` A A A D D ` { %.,.X.` A A A D F F `       ",
"      w.7.X.F A A A F } O.O.O.{ ' F S S D F ] O.O.O.[ U 5 - ; : : ; - 5 U  .o.O.{ ' F D S S F ] O.O.O.O.' F A A A F ' O.X.      ",
"      w.5.X.F A A A ' X.2.+.} F D A A A A ` X.2.#.] C e 4 - ; : : > - 5 t.-.#.] F D A A A A ` ..2.@.{ F D A A A A F O.2.7.      ",
"      w.5.X.` A A S `  .:.=.C M n M M n M B [ :. .G l q 2 $ & $ $ $ % 6 I ;. .V M n M M n M B [ :.| C M M A A S A F X.7.w.      ",
"      w.7.X.` A S D G *.&.v j i i i i i i j v &.H l h 9 = # + + + + # , P ) H k i i i i i i j v &.H j s p M S S A F X.7.w.      ",
"      9.5.O.F A A A C J ! Q z d d d d d d f R ! Q z q 9 * O o O O o O , L W Q z d d d d d d f R ! Q z g a m A A A ` X.5.9.      ",
"      #.X.{ F A t n J u.h.g.i./ / / / / / i.s.h.h.s.( K * o X o o X O < Y f.h.p./ / / / / / i.s.h.g.a./ ~ x m B ` { X.%.#.      ",
"      ' ' ` D N r s E v.S.K.C.N.N.N.N.N.N.C.A.K.K.K.M.k.1 O X o o . O 1 k.N.K.A.N.N.N.N.N.N.B.A.K.K.C.Z.j.E a Z  .#.O.} '       ",
"      D A A A M a f / Z.). X].].].].].(././.'.'.[.[.Y.l.8 O . o o . O 8 z.Y.[.]./.(.].].].].].].].].].).Z./ T v ;.@.{ F A       ",
"      S A t b x ~ a.n.U. XXXXXXXXXXX.X].'.`.`.`.[.oXT.x.8 O . o o . O 8 x.T.oX[.'.]..X.XXXXX.X].'.[..X XE.n.a.u.) _ V A S       ",
"      S A b s T d.N.R.). X.X.X X.X X].`.I.P.P.P._.}.Y.x.8 O . o o . O 8 x.Y.}._.I.^.]. X X X].^.I.!.'.].).R.B.j.W j m A S       ",
"      A M k z ^ n.~..X.X X].].].]. X].^.P.L.H.L.!.{.Y.x.8 O . o o . O 8 x.Y.{.!.P.!.'. X X X'.!.P.I.'.]..X.X~.n.^ z k M A       ",
"      p x Q y.b.D.].XX.X X'.^.^.'.].].'.!.!.!.!.`.}.Y.x.8 O . o o . O 8 x.Y.}.`.^.'.]. X X X].^.!.^.'. XXXXX].D.v.y.R x p       ",
"      u f y.b.G.Q.]. X X].'.I.P.!.'. X].].].].].[.oXY.z.8 O . o o . O 8 z.Y.oX[.].].]. X X X].].].].]. X X X].Q.G.b.y.f u       ",
"      0 T g.F.!.'.]. X X].'.!.P.!.'. X X X X X X.X.XY.z.8 O . o o . O 8 x.Y.oX[.'.'.'.'.].]. X X X X X X X X].'.!.F.g.T 0       ",
"          m.W.'.]. X X X X].^.^.'.]. X X X X X X.X.XY.z.8 O . o o . O 8 x.Y.}.`.!.I.I.!.'.]. X X X X X X X X].].'.W.m.          ",
"          ~.].].].]. X X X].].].]. X X X X X X X.X.XY.z.8 O . o o . O 8 x.Y.{.!.L.H.H.P.^.]. X X X X X X]. X X].].].~.          ",
"             X].'.'.'.]. X X X X X X].].'.'.]. X.X.XY.z.8 O . o o . O 8 x.Y.|._.P.P.P.I.^.].].].'.'.'.'.'.]. X X X X            ",
"                !.I.!.'.]. X X X X X].^.!.!.'.]..X.XY.z.8 O . o o . O 8 x.Y.oX'.^.^.^.'.].].].^.!.P.P.I.^.'. X X                ",
"                H.H.P.^.]. X X X X X].!.L.P.^.]..X.XY.z.8 O . o o . O 8 z.Y..X.X].].].]. X X'.!.L.H.H.L.!.'. X X                ",
"                  J.P.^.]. X X X X X].!.H.L.^.]..XXXY.z.8 O . o o . O 8 z.Y..X.X X X X X X X'.!.H.J.J.H.I.'. X                  ",
"                                                                                                                                ",
"                                                                                                                                ",
"                                                                                                                                ",
"                                                                                                                                ",
"                                                                                                                                ",
"                                                                                                                                ",
"                                                                                                                                ",
"                                                                                                                                ",
"                                                                                                                                ",
"                                                                                                                                ",
"                                                                                                                                "
};
