/* XPM */
static char *a8d5d8dd90894346f43f97f1cb923c72MFX2x14uRoJYaL8B[] = {
/* columns rows colors chars-per-pixel */
"64 64 212 2 ",
"   c #4E6338",
".  c #4E6338",
"X  c #0A0302",
"o  c #0C0907",
"O  c #0C0C0C",
"+  c #04070A",
"@  c #120000",
"#  c #1D0102",
"$  c #120E07",
"%  c #100B09",
"&  c #1C0A0D",
"*  c #161208",
"=  c #1C140B",
"-  c #151006",
";  c #0E0F10",
":  c #0F1111",
">  c #131313",
",  c #1D1A15",
"<  c #1C1C1B",
"1  c #171618",
"2  c #2D0000",
"3  c #270306",
"4  c #340000",
"5  c #3B0000",
"6  c #39060D",
"7  c #21170D",
"8  c #231B0E",
"9  c #28190E",
"0  c #231E16",
"q  c #291D10",
"w  c #261719",
"e  c #331418",
"r  c #2C220D",
"t  c #34280E",
"y  c #3A2D11",
"u  c #322717",
"i  c #3D321C",
"p  c #2F281A",
"a  c #1F1F20",
"s  c #1F2122",
"d  c #232323",
"f  c #2B2B2B",
"g  c #26292B",
"h  c #32302D",
"j  c #3B352B",
"k  c #2E3032",
"l  c #323333",
"z  c #3D3D3C",
"x  c #383836",
"c  c #3A2729",
"v  c #4E0001",
"b  c #4A040B",
"n  c #410005",
"m  c #550003",
"M  c #5B0003",
"N  c #410C12",
"B  c #640001",
"V  c #6C0002",
"C  c #740000",
"Z  c #7A0000",
"A  c #462915",
"S  c #433313",
"D  c #4D3A13",
"F  c #44331B",
"G  c #483712",
"H  c #513E14",
"J  c #59381B",
"K  c #60391E",
"L  c #532127",
"P  c #43392A",
"I  c #583F22",
"U  c #413D37",
"Y  c #482428",
"T  c #564115",
"R  c #5F4917",
"E  c #5C4617",
"W  c #634B18",
"Q  c #5E4122",
"!  c #48433D",
"~  c #584937",
"^  c #634524",
"/  c #6D4725",
"(  c #764925",
")  c #74573C",
"_  c #444343",
"`  c #484644",
"'  c #4C4B4A",
"]  c #494847",
"[  c #554947",
"{  c #52514E",
"}  c #5D564D",
"|  c #545352",
" . c #595654",
".. c #5D5D5B",
"X. c #595957",
"o. c #65494A",
"O. c #6C5A43",
"+. c #7F5743",
"@. c #7B5C4D",
"#. c #625B55",
"$. c #625F5B",
"%. c #5E615F",
"&. c #61615E",
"*. c #6E645E",
"=. c #7D6A5D",
"-. c #77655B",
";. c #666561",
":. c #6B6966",
">. c #6E6D69",
",. c #6A6663",
"<. c #736D69",
"1. c #786E67",
"2. c #72716D",
"3. c #7B746E",
"4. c #7D7066",
"5. c #777571",
"6. c #7A7671",
"7. c #7C7A74",
"8. c #7E7D7A",
"9. c #830000",
"0. c #8C0000",
"q. c #950000",
"w. c #9C0000",
"e. c #A30000",
"r. c #AB0000",
"t. c #B50000",
"y. c #BA0000",
"u. c #CB0000",
"i. c #C50000",
"p. c #D50000",
"a. c #DC0000",
"s. c #EA0000",
"d. c #E10000",
"f. c #9D5D2F",
"g. c #884F30",
"h. c #885031",
"j. c #86583F",
"k. c #8A5633",
"l. c #8F6535",
"z. c #A56233",
"x. c #A76939",
"c. c #A5723A",
"v. c #B5793C",
"b. c #C87F3E",
"n. c #805642",
"m. c #8C6345",
"M. c #856A59",
"N. c #946F51",
"B. c #AC7C44",
"V. c #AE704B",
"C. c #857567",
"Z. c #847E78",
"A. c #917B72",
"S. c #A67F62",
"D. c #C47E43",
"F. c #D27F40",
"G. c #C9803F",
"H. c #B98244",
"J. c #A68054",
"K. c #85837D",
"L. c #88857F",
"P. c #968269",
"I. c #B5966B",
"U. c #AB916D",
"Y. c #C68447",
"T. c #D38845",
"R. c #C8955A",
"E. c #DC994E",
"W. c #E99A4C",
"Q. c #E99F50",
"!. c #E39D52",
"~. c #F5A955",
"^. c #FAA753",
"/. c #FFB358",
"(. c #EAA85A",
"). c #D6A263",
"_. c #F9B464",
"`. c #F5BD77",
"'. c #FFC77F",
"]. c #797D80",
"[. c #8C8A84",
"{. c #868482",
"}. c #93918B",
"|. c #99968F",
" X c #9D9A93",
".X c #979794",
"XX c #918E88",
"oX c #BB9783",
"OX c #A29D96",
"+X c #A5A19A",
"@X c #ABA79F",
"#X c #B7A48A",
"$X c #ADAAA3",
"%X c #A4A5A5",
"&X c #B1ADA6",
"*X c #B5B2AB",
"=X c #BAB3A8",
"-X c #B9B6B1",
";X c #BDBAB5",
":X c #BEBCB8",
">X c #C6B9AD",
",X c #C0BEBC",
"<X c #C3BCB5",
"1X c #EEC893",
"2X c #E8C697",
"3X c #F7CC8F",
"4X c #D6C4A9",
"5X c #FFDCA3",
"6X c #E9CFA9",
"7X c #C4C4C4",
"8X c #C8CACC",
"9X c #D0D2D2",
/* pixels */
"                                                          . . . . . .                                                           ",
"                                                          X X X X X X                                                           ",
"                                                        3 4 5 5 5 5 4 3                                                         ",
"                                                      @ 5 B Z 9.9.Z B 5 @                                                       ",
"                                                    . # m 0.y.u.u.y.0.m # .                                                     ",
"                                                  X @ 2 B e.p.s.s.p.e.B 2 @ X                                                   ",
"                                                X # 4 v Z t.a.s.s.a.t.Z v 4 # X                                                 ",
"                                              . @ 2 v V q.y.p.d.d.p.y.q.V v 2 @ .                                               ",
"                                            . . @ 4 M Z w.t.i.u.u.i.t.w.Z M 4 @ . .                                             ",
"                                            . . @ 4 B 9.q.e.r.r.r.r.e.q.9.B 4 @ . .                                             ",
"                                            . . @ 4 M Z 9.0.0.0.0.0.0.9.Z M 4 @ . .                                             ",
"                                            . . @ 4 M C Z Z Z Z Z Z Z Z C M 4 @ . .                                             ",
"                                            . . X 2 v B V C C C C C C V B v 2 X . .                                             ",
"                                            . . X 3 n m B V C Z Z C V B m n 3 X . .                                             ",
"                                            . . X # 6 b M V C C C C V M b 6 # X . .                                             ",
"                                            + o % & 3 6 b M B B B B M b 6 3 & % o +                                             ",
"                                        . + o > > 1 w e 6 b m m m m b 6 e w 1 > > o + .                                         ",
"                                      . . + > 1 < < 0 w e N b b b b N e w 0 < < 1 > + . .                                       ",
"                                      + o O > a g g g f c Y L L L L Y c f g g g d > O o +                                       ",
"                                  . + o > > < g f l x z ` [ o.o.o.o.[ ` z x l f g < > > o + .                                   ",
"                                . . o > 1 d g l x z _ '  .,.<.3.3.<.,. .' _ z x l g d 1 > o . .                                 ",
"                                . + O > d g l x z _ ' | ;.5.K.[.[.K.5.;.| ' _ z x l g d > O + .                                 ",
"                            . + o O > < g f x U ` ` ' | :.K.}.|.|.}.K.:.| ' ` ` U x f g < > O o + .                             ",
"                          . . o > 1 a g l x z ` ' ' ' | >.L.|.OXOX|.L.>.| ' ' ' ` z x l g d 1 % o . .                           ",
"                          . . O < g l x z _ ` ` ] ` ' | :.K.|.OXOX|.K.:.| ' ` ] ` ` _ ! x l g < O . .                           ",
"                          . + 1 h ` { | | | ' _ _ _ ` { ;.7.[.}.}.[.7.;.{ ` _ _ _ ' |  .| { ` h 1 + .                           ",
"                          . o d _ &.>.2.>.&.{ _ z z ` { &.2.Z.L.L.Z.2.&.{ ` z z _ { &.>.2.>.&._ d o .                           ",
"                          . o g ' >.7.8.7.>...' ` ` { X.:.6.K.{.{.K.6.:.X.{ ` ` ' ..>.7.8.7.>.' g o .                           ",
"                          . o d ` ,.6.7.7.6.>.;.&.&.:.2.8.[.}.|.|.}.[.8.2.:.&.&.;.>.5.7.7.5.;.` d o .                           ",
"                          . + < x  .,.2.6.8.Z.K.K.K.L.[.|.+X$X$X$X$X+X|.[.L.K.K.K.Z.8.6.2.,. .x < + .                           ",
"                          . + > f ` X.:.7.L.XX|. X XOX+X$X*X-X;X;X-X*X$X+XOX X X|.XXL.7.:.X.` f > + .                           ",
"                          . + > g x | >.K.}. XOX+X@X&X*X-X;X:X,X,X:X;X-X*X&X@X+XOX X}.K.>.| x g > + .                           ",
"                          . . O 1 f ' <.[. XOXOX+X$X*X;X;X:X:X:X:X:X:X;X;X*X$X+XOXOX X[.<.' f 1 O . .                           ",
"                          . . o > d ! :.[. XOX+X+X$X&X*X-X;X<X<X<X<X;X-X*X&X$X+X+XOX X[.:.! d > o . .                           ",
"                          . . + o 1 h { 2.[.OX$X$X+X}.}.OX=X>X4X4X>X=XOX}.}.+X$X$XOX[.2.{ h 1 o + . .                           ",
"                              . + O < h ' >..X;X-X}.:.#.C.#X4X6X6X4X#XC.#.:.}.-X;X.X>.' h < O + .                               ",
"                                . + o > f | .X7X,X{._ h O.I.2X5X5X2XI.O.h _ {.,X7X.X| f > o + .                                 ",
"                                . . + O g | .X8X7X].k , ~ I.1X5X5X1XI.~ , k ].7X8X.X| g O + . .                                 ",
"                                . . o > l ..%X9X8X].g > ~ U.1X5X5X1XU.~ > g ].8X9X%X..l > o . .                                 ",
"                                . . ; d z >.%X9X7X].l 0 ~ I.1X5X5X1XI.~ 0 l 8.7X9X%X>.z d O . .                                 ",
"                                . . > g _ :.OX<X>XZ.! P ) I.1X3X3X1XI.) P ! Z.>X<XOX>._ g > . .                                 ",
"                                . . O d z #.A.oXoXJ.m.l.B.).`.'.'.`.).B.l.m.S.oXoXA.#.z d O . .                                 ",
"                                . . ; s x [ @.V.V.Y.Y.T.E.(._._._._.(.E.T.Y.D.V.V.@.[ x a ; . .                                 ",
"                                O > < g x ~ ) l.V.D.T.W.Q.Q.Q.Q.Q.Q.Q.Q.W.T.D.V.l.+.~ x g < > O                                 ",
"                              1 g l z ` { #.@.m.V.V.Y.T.T.Y.G.b.b.G.Y.T.T.Y.V.V.m.@.#.{ ` z l g 1                               ",
"                          . + s z | &.;.:.<.4.C.M.N.x.z.z.z.z.z.z.z.z.z.z.x.N.M.C.4.<.:.;.&.| z s + .                           ",
"                          $ , j } 4.7.3.2.2.3.6.4.M.n.h.g.g.h.h.h.h.g.g.h.j.M.4.6.5.2.2.3.7.4.} j , $                           ",
"                        t F I ) N.P.P.=.#.X.%.:.:.-.@.+.n.+.+.+.+.+.+.n.+.@.-.:.:.%.X.#.=.P.P.N.) I F t                         ",
"                    . = J h.c.H.R.R.J.O.U x _ | $.*.-.=.M.=.=.=.=.=.=.M.=.-.*.$.| _ x U O.J.R.R.H.c.h.J = .                     ",
"                    . = Q c.E.~.~.!.B.^ 0 1 f _  .;.<.3.6.3.3.3.3.3.3.6.3.<.;. ._ f 1 0 ^ B.!.~.~.E.c.Q = .                     ",
"                    . 7 ^ v.~././.W.v.J = O d z | ..:.>.2.2.2.2.2.2.2.2.>.:...| z d O = J v.W././.~.v.^ = .                     ",
"                    . 7 ^ H.^./.^.W.x.J = O d U { X...&.&.&.&.&.&.&.&.&.&...X.{ z d O = J x.W.^./.^.H.^ 7 .                     ",
"                    . 7 ^ v.Q.^.W.F.f.J = : d z ' | | | | | | | | | | | | | | ' z d : = J f.F.W.^.Q.v.^ 7 .                     ",
"                    . = I l.v.D.v.z.( A * : d z ' ' ' ' ' ' ' ' ' ' ' ' ' ' ' ' z d > * A ( z.v.D.v.l.I = .                     ",
"                      = F ^ / / / K A 9 % : d x _ ' ' ' ' ' ' ' ' ' ' ' ' ' ' _ x d ; % 9 A K / / / ^ F =                       ",
"                        8 q q q 9 9 * o o ; a l z ` ' ' ' ' ' ' ' ' ' ' ' ' ` z l a O o o * 9 9 q q q 8                         ",
"                          . . . . . . . + O < f x U ! ` ` _ _ _ _ _ _ ` ` ! U x f < O + . . . . . . .                           ",
"                            . . . . . . + O , p j P P P j h f g g f h j U P P j p , O + . . . . . .                             ",
"                                      . + % 8 u i F F i p 0 > > > > 0 p i F F i u 8 % + .                                       ",
"                                      . . $ 8 y S S S y r * o . . o * r y S S S y 8 $ + .                                       ",
"                                      . + $ r S D H D S r - . . . . - r S D H D S r $ + .                                       ",
"                                      . + * r G T E T D t * + . . + * t D T E T G r * + .                                       ",
"                                      . + * t D R W R H y = o . . o = y H R W E D t - + .                                       ",
"                                      . + * t H R W W T y = o . . o = y T W W R H t - . .                                       "
};
