/* XPM */
static char *_ba84e121b9a461b8b1f45aa46c9f4cdN4MWkFWxTXRkTLY3[] = {
/* columns rows colors chars-per-pixel */
"64 64 231 2 ",
"   c #9B2615",
".  c #982B16",
"X  c #9D2B16",
"o  c #9E3118",
"O  c #A32B17",
"+  c #A72818",
"@  c #A42C19",
"#  c #AB2D1A",
"$  c #B32E1C",
"%  c #A23017",
"&  c #A5321A",
"*  c #AC331B",
"=  c #A43818",
"-  c #AD3A1B",
";  c #B4341C",
":  c #BA351D",
">  c #B43B1D",
",  c #BB3C1E",
"<  c #B42D21",
"1  c #BA2F22",
"2  c #AD3520",
"3  c #B43521",
"4  c #BB3521",
"5  c #B53B21",
"6  c #BC3C21",
"7  c #C2371E",
"8  c #C23C1F",
"9  c #C13620",
"0  c #C33D22",
"q  c #CB3E22",
"w  c #C23D28",
"e  c #CC3E29",
"r  c #AB421D",
"t  c #B5421E",
"y  c #BB431E",
"u  c #B44B1F",
"i  c #B64321",
"p  c #BD4321",
"a  c #B64C21",
"s  c #BD4B21",
"d  c #BE4B29",
"f  c #B45220",
"g  c #BE5222",
"h  c #BD5C24",
"j  c #BF6326",
"k  c #C2431F",
"l  c #C34422",
"z  c #CA4423",
"x  c #C44B22",
"c  c #CC4B24",
"v  c #C64328",
"b  c #CC4529",
"n  c #C5492B",
"m  c #CC4C29",
"M  c #D24425",
"N  c #D24C26",
"B  c #D44929",
"V  c #D34D2B",
"C  c #DA4E2A",
"Z  c #C45323",
"A  c #CB5325",
"S  c #C45B25",
"D  c #CB5A26",
"F  c #C65329",
"G  c #CD5329",
"H  c #C65A29",
"J  c #CC5B29",
"K  c #D25426",
"L  c #DA5527",
"P  c #D25D27",
"I  c #D95C27",
"U  c #D3542A",
"Y  c #DA532A",
"T  c #D35C2A",
"R  c #DB5C2B",
"E  c #D25431",
"W  c #D75B36",
"Q  c #DC5C31",
"!  c #E0552B",
"~  c #E35E2D",
"^  c #E05832",
"/  c #C36327",
"(  c #CA6327",
")  c #C56927",
"_  c #C66529",
"`  c #CC632A",
"'  c #C56A28",
"]  c #CC6B2A",
"[  c #D26027",
"{  c #D3632B",
"}  c #DB642C",
"|  c #D46B2C",
" . c #DB6B2D",
".. c #C5742B",
"X. c #CC732C",
"o. c #C77D2C",
"O. c #CD7A2D",
"+. c #D4732D",
"@. c #DB732E",
"#. c #D47A2E",
"$. c #DB7A2F",
"%. c #D66432",
"&. c #DC6531",
"*. c #D76A34",
"=. c #DC6C32",
"-. c #CE7731",
";. c #CD7B31",
":. c #D57432",
">. c #DC7432",
",. c #D57D31",
"<. c #DC7B32",
"1. c #DD7C39",
"2. c #E2642D",
"3. c #E8622D",
"4. c #E26B2D",
"5. c #E2732E",
"6. c #E26632",
"7. c #E36D33",
"8. c #E96F31",
"9. c #E46F39",
"0. c #E37333",
"q. c #E97535",
"w. c #E37C33",
"e. c #EA7C35",
"r. c #E5753A",
"t. c #EA7138",
"y. c #E57C3A",
"u. c #E97C3A",
"i. c #EB7D41",
"p. c #C9822E",
"a. c #D1802F",
"s. c #CE8A31",
"d. c #D58431",
"f. c #DC8433",
"g. c #D58B32",
"h. c #DC8C34",
"j. c #DC803C",
"k. c #DE8E39",
"l. c #D59234",
"z. c #DC9335",
"x. c #D59937",
"c. c #DB9B36",
"v. c #DD933A",
"b. c #DC9B39",
"n. c #E28335",
"m. c #EA8334",
"M. c #E38B36",
"N. c #E98B36",
"B. c #E5843A",
"V. c #EA843A",
"C. c #E48C3A",
"Z. c #EB8C3B",
"A. c #E39236",
"S. c #EB9237",
"D. c #E29A37",
"F. c #E4933A",
"G. c #EA923C",
"H. c #E49B3A",
"J. c #EB9B3C",
"K. c #DDA239",
"L. c #D8A538",
"P. c #DFAD3C",
"I. c #DDBA3F",
"U. c #E4A33B",
"Y. c #ECA43D",
"T. c #E4AC3C",
"R. c #ECAB3E",
"E. c #F0A63F",
"W. c #E4B33E",
"Q. c #EAB23F",
"!. c #E6B93F",
"~. c #DF9C42",
"^. c #E48A41",
"/. c #E88C41",
"(. c #E69740",
"). c #EC9542",
"_. c #EC9C43",
"`. c #DBBD41",
"'. c #E5A342",
"]. c #ECA442",
"[. c #E5AD42",
"{. c #EDAC43",
"}. c #EEA649",
"|. c #F1AD44",
" X c #F1AD4C",
".X c #E6B242",
"XX c #ECB342",
"oX c #E5BB41",
"OX c #ECBB43",
"+X c #EFB24A",
"@X c #EEBB49",
"#X c #F1B542",
"$X c #F1BC44",
"%X c #F0B24B",
"&X c #F2BC4B",
"*X c #F2B652",
"=X c #E4C243",
"-X c #ECC345",
";X c #E5CD45",
":X c #EDCB46",
">X c #EEC64C",
",X c #E5C849",
"<X c #EDCB49",
"1X c #F2C345",
"2X c #F2CA46",
"3X c #F3C44B",
"4X c #F3CD4B",
"5X c #EAD248",
"6X c #ECD449",
"7X c #EDDB4A",
"8X c #F3D147",
"9X c #F4D44B",
"0X c #F8D64A",
"qX c #F4DB4C",
"wX c #EFC253",
"eX c #F6CC51",
"rX c #F4CB59",
"tX c #F4D353",
"yX c #F8D456",
"uX c #F4DC52",
"iX c #F8DD51",
"pX c #F5E34E",
"aX c #F9E54E",
"sX c #F7E84E",
"dX c #F9EA4F",
"fX c #F6E251",
"gX c #F9E453",
"hX c #FAED52",
"jX c #F8E759",
"kX c #FAF352",
"lX c #F9E667",
/* pixels */
"} t.9.A - * : : l G {  .{ D c K K z N Y N U j.1.%.A l z R } D X.U.4X3Xz.] { <.<.f.m. .x t p A D c c x Z A { y.{ c A >.n.<.w.q.4.",
"c T T x > > 6 , x &.u.u.0.{ P R Y N Y ^ Y c ` ` { K K K 2.7.D ) z.4X4XU.#.<.J.Y.J.n.{ x > y x x l , y y 0 V *.T K K [ | @.e.0.5.",
"y l l , ; , l > y  .V.Z.w.| D T U z z m z 0 p x A A K V R } { ] z.2X4XXXH.Y.1X3XQ.f.A l ; * , p ; @ * > : v D { } T D ( <.V.w.@.",
"A x l 0 : 6 p > y { V.Z.m.| Z D R m : : ; : 7 0 l p 6 : l A { #.H.#XOXW.XX1X0XqX1XA.D b 4 * 5 n 5 @ @ * ; v Z (  . .D H <.Z.<.] ",
"X.h s l l 6 6 , c 4.e.m.m.>.D { =.F > # # $ : 0 , * # # ; l P @.D.XXoX=X4X2X8X8XY.w.c v 0 ; 5 J H - % ; b U g S | 0.D k D =.{ Z ",
"b...f s p 6 6 : z R } { >.=.D | =.g - @ + # ; , > * $ $ ; k N [ h.-X;X7XpX5X:X@X$.K 8 0 b , t :.f.h - p  .@.] ] | *.U 8 z N A x ",
"{.v.j t > 6 ; ; 7 z c x K T K } =.A 6 ; # # $ , 6 ; $ $ , c M P h.<X7XdXhXqXOXY.| x > 6 V l y :.].k._ ( f.A.J.h.X._ D l k c V l ",
"J.].,.a - 3 * ; : 0 0 0 q M M L R m 0 4 # # $ : 6 4 $ ; l Y Y } k.<X7XkXkXqXU.m.{ y > p m p - / (.%XJ.g.U.$X&X{.b.d.] Z x c b 0 ",
"<._._.| p ; @ * ; 0 v q q M M c l 6 : $ @ O # ; 6 6 : ; l V V T g.:X7XhXkX7Xz.>.R z y s F p t u ..H.].U.1X4X-X$X$X{.k.| U z e : ",
"{ w.G.w.x 6 5 5 6 6 l z M C N b 5 # # # O X # $ : 6 6 ; 5 6 0 A f.1X9XhXkX6Xz.w.~ Y A J ` H ` Z h X.k.T.<X=X!.OX$X$X{.G.} v 4 $ ",
"( `  .} c l m v l 6 0 z M ! K v ; @ # # O O @ * ; : > ; * * 6 A n.$X8XhXkX7XD.m.3.~  .>.<.w.V. .| #.z.W.-XI.!.$X$XR.R.G.R q : # ",
"( Z Z A A c N z z l z z z K c l > > , ; * @ * ; ; ; > - * * p T N.#X2XaXhXqXY.N.R L | <.G.).Z.e.m.J.{.OX2X=X1X2X$XU.z.w.R q : ; ",
"Z s x x D D K c z z z z z R T A x Z D s - & * ; ; # * * - t c [ n.#X1X;XgXfX#XM.D A ( +.n.Z.m.m.S.|.$X2X2X2X1X1X1XU.X.| P c , l ",
"y Z J { >.>.4.2.L N z k c 7. .{ @.n.M.X.a = * * # # @ * - s { | #.{.OX`.qXiXXXh.` { @.+.] X.f.A.H.#X1X2X-X4X8X8X2XK.] (  .| D T ",
"F {  .0.y.V.m.V.9.N k , p T T  .m.|.&XH.' r * @ # # * > y A =.` ] Y.4X;X6X9XQ.H.$. .m.n.O.o.b.U.T.!.-X2X:X0XdXaX8XT.O._ #.C.>.{ ",
"&.r.>.=.=.r.n.Z.u.U k , y A A D $.|.eX3Xk.h > * * 3 6 6 A  .w.] j c.9X7X;X:X=XXXf.( <.J.'.[.OXOXOXoX:X6X:X0XhXkXgX-XD.#.X.A.J.+.",
"%.*.{ D A U { u.0.A c c V Y m x D n.|.&XJ.+.x > > i p b R 7.n.+.X.c.8XqXoXOX-X1Xz.+.f.{.&X3X3X-X1X<XuXtX-X:XpXhXjXtX&XA.X.,.].C.",
"F F s y p z D 7.&.G N N Y Y v 6 p D <.C.m.@.S h h a s U 6.[ | <.f.U.8XqXT.Y.1X3XR.g.d.].&X&X@XXX@X>XrXwX.XXX:XqX9X2X$XJ.+.] J.}.",
"p x y > , l c } { G K N c x 5 3 5 p Z [ [ [ X.v.b...Z T } Z h <.Z.H.9X9XD.f..X4X@Xs.o.D.@X.X.X[..X'.~.v.A.R.$X$XOXR.H.M.| D +.).",
"> , 6 ; * > x T F s c c x t = & 2 5 y x c P z.3X4XU.X.=. .Z S :.1.d.=X8XM.| L.9X2Xx.p.H.XXT..X@X{.A.] ' h.R.R.D.H.A.#.{ D x x | ",
"; ; 3 * @ * > x s t x x y - & @ @ @ ; , l U k.3XiX8XQ.Y.M.] ( | ` ' c.3XG.| v.3X9XOXU.R.Y.k.h.(._.B.| | n.C.f.O.f.n.{ c z 0 > x ",
"$ # # @ @ @ @ * y y A Z t * * @ @ O * > 6 v ] D.-XqXaXqXR.#.{  .{ S O.}.G.| >.].9X9X$XR.M.] D D %.{ {  .0.| | ] +.0.Y M e 0 : , ",
"O + # # * @ @ @ y D  .T x 5 * & * * * ; > , g ] z.W.4X9X{.<.[ &. .S _ /.V.D ( k.1X9X1XD.#.{ T x , , l x U [ >.<.n.>.D c v : : : ",
"@ @ # # # # @ & p &.7.[ D F > @ > 6 6 , > , c D ] o.l.H.G. .R R T x Z >.0.D Z +.U.4X-Xl.) [ R z : $ ; ; c } w.B.G.n.P c l , : 7 ",
"6 ; @ @ @ + & > F =.{ s H %.> @ 5 l l l 6 , m v Z g S ]  .T K l l p y A { D c Z ..[.&Xb.] } R l : $ $ ; c *.+.<.Z.n.D y > 3 w 0 ",
"l 6 ; * * 2 * t H =.{ s D %.p * > l p 6 ; ; 6 : p p x x x l l ; ; * > s [ [ L l a ,.U.H.$.5.7.K v w 4 > Z | X.+.<.| x , > ; w e ",
"> p v c F d r s ` y.w.D D { D F c s > ; * * * ; ; , l l , * * @ @ @ * s @.w.6.A s _ k.H.n.@.e.7.Q V v p ( <.M.M.<.H y l l 6 0 v ",
"s s T J ` g a S | w.B.| | | =.=.%.x - & @ @ @ * * ; 6 l > & % X X X & s w.G.u.} A D f.].F.+.w.e.7.Y b x ] M.A.h.>.Z y x b 6 6 6 ",
"( S ` S h f h / _ ] f.M.n.@.{ =.*.s &         % * ; 6 l p = o .   @ & t ` B.u.} c x >._._.M.M.n.@.{ A S ] d.k.f.| g y y l , : : ",
"f.+.+.] -.-.X.' ] X.+.n.n.] S { ` s %   X   . . * 6 6 p t = = o X & * * y ` =.T l k T B.Z.C.G.f.f.f.$.+...;.C.<.$.| s x b l l l ",
"J.n.<.f._. X(.d.f.<.#.] +.| ( ` Z t - * * % . X * ; : , - % = = & 3 ; ; > s D c l 8 c T | +.n.M.U.R.U.'.~.v.n.| <.B.:.{ Q c N Y ",
"F.#.' X.H.%X].F.M.<.:./ ] w.| ( g t i p p - o % * ; , 6 > * = * 3 w 6 : ; > x l 8 : ; p A ` { $.{.OX@X*X*X_.w.| >.B./.>.&.Y C C ",
"f.] ] ,.H.].F.,.+.:.<.] ] >.@.{ Z y F F c t * * * ; l m l p * 3 6 w 0 0 , k A A l * O * x T D | D.[..X[.].B.@.| | >.1.1.7.L z e ",
",.] | B.J.Y.A.X./ :.1.=.{ | 0. .Z y D } T x > * * ; l G G v > 6 0 q 0 l c A }  .F - X O p R R P f.H.x.'.).>.+.` D ` ( >.0.K : : ",
"d.] ( ` +.h.G.n.] ` ` F Z { q.7.A x K 7.4.K p > * ; p U T A , l z v l m A K 4.7.T > O @ , R 6.K ` f.c.{._.m.f.] H Z Z T R c ; # ",
"A.] Z s g _ ,.f.+.` i - t T q.q.R A K 2.8.2.K l > - y T  .P y x c b b U T D } 8.&.l * @ > U 9.D y S g.D.M.f.A.C.>.A p p l 6 # + ",
"d.h s > 5 i a Z G m 5 * t D 7.u.0.} I 2.8.q.} T Z t t Z  . .D x x l b T  .{ } 2.2.c l > ; v 0. .l t ( +.| { <.Z.e.Y > ; 4 $ # # ",
"O._ H - @ # @ & ; 4 , * - g J 0.e.5.5.4.4.q.5.w.<./ u g  .9.} y , l c K {  .4.I R R Y z 6 ,  .w.D p b K c K } 4.R c : $ 1 $ # # ",
"a.:.` - O @ X X # $ ; * - t x } q.e.m.w.5.$.A.{.|.k._ H } 9.=.x y c N c K 7.0.P A 6.7.U p s | m. .A b B M M K c 0 4 4 4 4 $ # # ",
"g.<.| a % O X X @ # ; ; - t p K 2.e.Z.N.n.g.W.9XeX{.+.Z A R 7.[ A c c z c 6.e.| A &.7.T A ` ] n.n.{ A M q q l 6 < < 3 4 4 $ # ; ",
"H.f.| H t - & O & 2 3 ; ; > 6 l Y 8.Z.E.Y.T.8XaX8X{.n.T x A =.=.` F x l l T w.w.H A [ Z x { S ] M.+.Z s k y : : < $ $ ; : : , y ",
"XXd.] J s - * & 2 5 3 ; ; ; 4 0 N 2.m.J.#X4XhXkX0XXXG.7.c x { >.| g t y p x  .w.{ Z A y t x p s w.w.] X.../ p : : ; ; 0 0 z K P ",
"$Xh.| D i = @ & 2 5 ; ; $ $ 6 l c K | f.Q.qXkXkXqXT.f. .A x ( m.f.j - - p x { 0.0.D D x p , 0 y  .N.A.XXOXK.{ 0 : : 0 z z c 0.0.",
"1XH.] x * X X @ * 3 ; ; ; ; 6 l l l Z ] c.9XkXhX6XP.d.` Z Z ] M.Z.:.g > p x A  .e. .A D c l l l } Z.Y.eXgX2Xy.z ; ; 0 z 0 b =.7.",
"-XU.] u * X   @ @ ; ; : ; ; , > > > y ( z.1XfXgXuX>X'.,.h S <.f.n.>.T l , l c T 0.7.T A c l l T <.M.H..X4X3Xu.b : ; : : 7 z G c ",
":XT.f.` s - @ @ @ ; ; ; ; p Z - = - , D <.Y.-XqXjXyX&XH.O.X.M.f.+.{ Y z : , p c R 2.R c c y g <.].H.A.h.J.E.7.l ; # $ ; 0 c c y ",
"8X-X].M.] a 3 ; > ; ; * t { 1.h r t l U  .n.T.3XeXeX@X].H.A.F.#.( x b b 0 , > y c L Y N c s / H.3X#XM.#.$.w.&.l ; $ ; , 8 c T c ",
"qX=XXX].f.S s s s y y t g B._.,.J G m m R 4.N.].{.{.U.H.J.].G.+.g y l V m , y y k M N N G g ' Y.3XR.#.{ P T T m 0 : 0 l : l =.=.",
"fX:XOXU.A.,.( H S ( *.] #._.*XG.| D l z N L 4.w.n.G.F.M.M.G.Z.+.Z y p G U Z x x c A c K T D _ f.H.f./ ` { P A c l , 6 l , 6 r.i.",
"jXuX-XP.K.D.#._ _ :.^.(.'.&X%Xn.{ c l 0 z z L } | w.B.+.+.w.n.w.{ x y G %.| | |  . .[ } 4.T D D ( D D { 5.5.T x , > ; > 6 , T &.",
"lXlXuX<X-X.Xz.O.' ] v.+X&X@XD.| P Y c z 8 z Y K A *.r.D Z { | 0. .A l A  .w.M.J._.Z.w.w.e.} K l k l K R 4.e.w.A , 6 > ; 6 ; > > ",
"lXlXjXuXuX4XXXA.X.-.'.rXOXL.d.( T 2.R N N Y Y c p J *.x y x D [ T T Y A T @.A.].].F.h.Z.Z.4.c z q q N Y I 5.V. .x m E n 6 ; @ @ ",
"tXtXuXuXfXuX3XY.h.k.[.eX.Xg.+.A c R 2.} R &.R c x m m 6 , c A A U Q Q Y U  .n.M.n.$.<.V.V. .D N M M z M c T N.Z.{ } 7.U z 6 ; > ",
"<X:X5X7XuXtXXXH.g.l.T.2XXXf.[ z 8 z T  .T  .7.} Q V 0 ; 0 z c c Y Q Q K c K 6.4.~ R } 5.>.( A G B M z z l D h.{.M.@.} c m z k y ",
"-X-X;X6XuX9XR.z.g.c.!.OXT.d.{ x : 8 z c c K } 7.6.Y 0 : 7 z N c c c c c l l A A K K K K D Z x c M M N Y A H o.[.].+.D x l z c Z ",
"oX-X8XfXjXyX#XU.T.-X9X:X.Xb.<.{ A l l v M B c K R N 0 9 0 M N z l , l c l y t y l z z z c c l z M q c 7.w.+.o.H.+XA.] s , l U { ",
"oX:XqXhXjXuX$XXX-XfXhXqX4X&X].F.M.@.A l N ! A c R Y q 9 7 z z 8 : ; , G b l t > 6 0 q z c N z z z 0 l { B.J.D.c.XX{.h.| y y J B.",
"4X9XqXgXuX,XOX-X9XhXhXfXiX4X@X$X3X|.<.Z D }  .T R Q b 4 : 8 0 : ; # ; l p , > ; 4 4 6 l N R K c l , x D | C.Y.R.OX1XQ.J.| u ( _.",
"9X9XqXpX5X`.oX4XgXhXqX6X9X2XW..X2XeX_.] D  .@.| { R m 0 : 7 0 0 ; # # * ; * $ ; : , 0 b K R K K K c A J D _ f.Y.$X2X1X3XF.S S C.",
":X9XqXuX6X=X-X9XhXsX5X=X-X1XoXL.W.2X{.+.{  .n.f.] D c , , : 0 q 4 ; ; * > > : : , p G Y T R D  .0.{ { { Z s D <.H.&X1X3X].| Z | ",
"4X9X9X9X:X=X2X9XpXsX6X=X-X2X2XoXW..XH.| T =.H.{.v.X.g t y l 8 : : , > 6 l 6 : : y A U c c A ` w.w.` { >.| S D D _ k.XX&XJ. .Z H ",
"4XOX$X$XW.P.OX:X6XsXqX5X8X9X9X4XOXU.M.| K } ].eX3XA.h g T } x > , l m Y U p ; , y b l , y Z :.).C.{ [ w.G.C.&.A y H C._.w.P Z H ",
"@XD.H.J.H.c.T.!.=X6XqXpXqXaXsXqX:XT.M.@.K T D.eXyX{.X.( 0.r.D > , b K Q U > * ; : : 0 l x _ k.}._. .P } G._.0.T A s ` @.| ( S ` ",
"{.k.$.$.n.A.J.D.b.P.9XaXdXkXkXdX9XXXJ.w.P A s.OX&X].#.` >.r.G , l l l l 6 ; # # ; 0 V W %.:.H.].F.{ c A $.F.e.0.>.Z Z D +.,.,.f."
};
