/* XPM */
static char *_f9ecf8ca0a64cbabd1e567d3ac564abKvWlJApGaflt39EP[] = {
/* columns rows colors chars-per-pixel */
"64 64 168 2 ",
"   c #4E6338",
".  c #4E6338",
"X  c #161416",
"o  c #171817",
"O  c #1B1916",
"+  c #161618",
"@  c #171919",
"#  c #191C1A",
"$  c #231D16",
"%  c #281F15",
"&  c #1A221D",
"*  c #1E281F",
"=  c #262016",
"-  c #2B2215",
";  c #232319",
":  c #2B2518",
">  c #242B1E",
",  c #2A2D1D",
"<  c #322614",
"1  c #362914",
"2  c #3B2B14",
"3  c #332B19",
"4  c #3A2F1B",
"5  c #2D311E",
"6  c #3A3017",
"7  c #35341D",
"8  c #3A341D",
"9  c #3E391C",
"0  c #1A2621",
"q  c #1D2B22",
"w  c #1E3126",
"e  c #1E3529",
"r  c #1F3B2D",
"t  c #1F3E30",
"y  c #232F22",
"u  c #223525",
"i  c #293724",
"p  c #233A27",
"a  c #2D3A25",
"s  c #223E2D",
"d  c #323C23",
"f  c #203F30",
"g  c #412F13",
"h  c #443214",
"j  c #4B3614",
"k  c #4B3915",
"l  c #43351B",
"z  c #463A1F",
"x  c #4B3919",
"c  c #533C14",
"v  c #433820",
"b  c #4D3F22",
"n  c #2E4027",
"m  c #23412D",
"M  c #2C442A",
"N  c #294B2F",
"B  c #354325",
"V  c #3B4825",
"C  c #354D2C",
"Z  c #394E2B",
"A  c #3C522C",
"S  c #3E582F",
"D  c #234431",
"F  c #264B33",
"G  c #294F33",
"H  c #2A5234",
"J  c #2E5A36",
"K  c #2D5C38",
"L  c #325733",
"P  c #315D36",
"I  c #3C5A31",
"U  c #305C38",
"Y  c #2F603A",
"T  c #3C6537",
"R  c #32653B",
"E  c #3A6439",
"W  c #346B3D",
"Q  c #3A6E3E",
"!  c #3C713F",
"~  c #564016",
"^  c #5B4316",
"/  c #55431E",
"(  c #594319",
")  c #5E481A",
"_  c #624C1B",
"`  c #66511D",
"'  c #69541E",
"]  c #404F27",
"[  c #534525",
"{  c #564826",
"}  c #5E4D26",
"|  c #415027",
" . c #435428",
".. c #435C2F",
"X. c #4B5F2B",
"o. c #614D23",
"O. c #6B5522",
"+. c #67542A",
"@. c #695629",
"#. c #6D592A",
"$. c #715B25",
"%. c #745E2B",
"&. c #50642D",
"*. c #436033",
"=. c #496531",
"-. c #486B37",
";. c #416E3D",
":. c #486C39",
">. c #546C30",
",. c #42733E",
"<. c #4B743B",
"1. c #5B7431",
"2. c #5D7D37",
"3. c #567A3A",
"4. c #597D39",
"5. c #77612B",
"6. c #7A632C",
"7. c #617C34",
"8. c #3F7540",
"9. c #427740",
"0. c #497740",
"q. c #457A41",
"w. c #4A7D42",
"e. c #59813C",
"r. c #668336",
"t. c #6A8D3B",
"y. c #72943A",
"u. c #73983D",
"i. c #7EA43F",
"p. c #4C8143",
"a. c #528443",
"s. c #558945",
"d. c #5A8D46",
"f. c #5E9146",
"g. c #639445",
"h. c #699642",
"j. c #669847",
"k. c #6B9E47",
"l. c #719F44",
"z. c #6FA147",
"x. c #73A547",
"c. c #79A342",
"v. c #77A947",
"b. c #7AAB47",
"n. c #72A548",
"m. c #76A948",
"M. c #79AD48",
"N. c #7FB047",
"B. c #7DB049",
"V. c #80A740",
"C. c #85AD41",
"Z. c #82B247",
"A. c #87B747",
"S. c #86B143",
"D. c #88B243",
"F. c #89B646",
"G. c #8BBA47",
"H. c #8EBB46",
"J. c #80B249",
"K. c #84B548",
"L. c #91BF47",
"P. c #94C247",
"I. c #94C347",
"U. c #96C548",
"Y. c #98C648",
"T. c #9ACA49",
"R. c #9CCD4A",
"E. c #9FD14B",
/* pixels */
"                                                      . . . . . . . . . .                                                       ",
"                                                      o o o o o o o o o o                                                       ",
"                                                    > , , , , , , , , , , >                                                     ",
"                                                  5 d V ]  . . . . . .] V d 5                                                   ",
"                                              X ; d | &.1.7.r.r.r.r.7.1.&.| d ; X                                               ",
"                                            X # > B X.7.y.i.C.D.D.C.i.y.7.X.B > # X                                             ",
"                                          # & > a A >.t.V.H.U.T.T.U.H.V.t.>.A a > & #                                           ",
"                                        > y i n Z =.2.u.S.P.R.E.E.R.P.S.u.2.=.Z n i y >                                         ",
"                                    # * u n C I -.3.t.c.F.P.T.R.R.T.P.F.c.t.3.-.I C n u * #                                     ",
"                                X X # > i C *.<.a.g.l.b.F.L.U.Y.Y.U.L.F.b.l.g.a.<.*.C i > # X X                                 ",
"                                . X # > a A :.a.g.k.v.Z.F.H.L.P.P.L.H.F.J.m.k.g.a.:.A a > # X .                                 ",
"                                . X # > d S <.d.k.n.M.J.K.A.G.G.G.G.A.K.J.M.n.k.d.<.S a > # X .                                 ",
"                                . X # > B ..3.g.z.m.M.B.N.Z.Z.Z.Z.Z.Z.N.B.M.m.z.g.3...B > # X .                                 ",
"                                . X # , B *.4.h.x.M.M.M.b.b.b.b.b.b.b.b.M.M.M.x.h.4.*.B , # X .                                 ",
"                                @ # * i Z =.e.h.x.m.M.M.v.v.v.v.v.v.v.v.M.M.m.x.h.e.=.Z i * # @                                 ",
"                            # & 0 w p M I -.e.g.k.n.m.m.v.v.v.v.v.v.v.v.m.m.n.k.g.e.-.I M p w 0 & #                             ",
"                        X # & q u m N L T <.a.d.j.k.n.x.v.v.v.v.v.v.v.v.x.n.k.j.d.a.<.T L N m u q & # X                         ",
"                      X X # * u m H P W ! w.a.d.f.j.k.z.x.v.v.v.v.v.v.x.z.k.j.f.d.a.w.! W P H m u * # X X                       ",
"                    + @ # & q p N P Q ! q.p.s.s.d.g.j.k.z.x.v.v.v.v.x.z.k.j.g.d.s.s.p.q.! Q P N p q & # @ +                     ",
"                  @ # # & q u M L E ,.w.p.p.s.s.d.f.g.j.k.k.k.z.z.k.k.k.j.g.f.d.s.s.p.p.w.,.E L M u q & # # @                   ",
"              o # # & 0 q u m G E ,.w.p.s.s.s.s.d.d.f.g.g.g.g.g.g.g.g.g.g.f.d.d.s.s.s.s.p.w.,.E G m u q 0 & # # o               ",
"            X o # & 0 q e s G P T <.a.s.d.d.d.d.d.d.d.d.d.f.f.f.f.f.f.d.d.d.d.d.d.d.d.d.s.a.0.T P G s e q 0 & # o X             ",
"          X X o # & 0 w s F H E ;.w.a.s.s.d.d.d.d.d.d.d.d.d.d.d.d.d.d.d.d.d.d.d.d.d.d.s.s.a.w.;.E H F s w 0 & # o X X           ",
"          X X @ # & q p D H U E Q 9.w.p.s.s.s.d.d.d.d.d.d.d.d.d.d.d.d.d.d.d.d.d.d.s.s.s.p.w.9.Q E U H D p q & # @ X X           ",
"          X X @ # q u m H K R W Q ! 9.q.p.s.s.d.d.d.d.d.d.d.d.d.d.d.d.d.d.d.d.d.d.s.s.p.q.9.! Q W R K H m u q # + X X           ",
"          X X @ & q p N J R W W W W Q ! q.w.s.s.d.d.d.d.d.d.d.d.d.d.d.d.d.d.d.d.s.s.w.q.! ! W W W W R J N p q & + X X           ",
"          X X # & q p G K R W W W W W Q 8.q.p.s.s.s.s.s.s.s.s.s.s.s.s.s.s.s.s.s.s.p.q.8.! W W W W W R K G p q & o X X           ",
"          X X # & q p H P W W W W W W W ! 8.q.w.p.p.p.p.p.p.p.p.p.p.p.p.p.p.p.p.w.q.9.! W W W W W W W P H p q & # X X           ",
"          X X # & q p H P W W W W W W W Q ! ! 9.9.9.9.9.9.9.9.9.9.9.9.9.9.9.9.9.9.! ! W W W W W W W W P H p q & # X X           ",
"          X X # & q p G K R W W W W W W W W Q Q Q ! ! ! Q Q Q Q Q Q Q Q ! ! ! Q Q Q W W W W W W W W R K G p q & # X X           ",
"          X X + & q p N J R W W W W W W W W W W W W W W W W W W W W W W W W W W W W W W W W W W W W R J N p q & @ X X           ",
"          X X + # q u m H J Y R R W W W W W W W W W W W W W W W W W W W W W W W W W W W W W W R R Y J H m u q # @ X X           ",
"          X X @ # & q p m G J K R R W W W W W W W W W W W W W W W W W W W W W W W W W W W W R R K J G m p q & # @ X X           ",
"          X X o # & q e s D G J K R W W W W W W W W W W W W W W W W W W W W W W W W W W W W R K J G D s e q & # o X X           ",
"          X X o # & 0 w r m F H J K R R R R R R R R R R R R R R R R R R R R R R R R R R R R K J H F m r w 0 & # o X X           ",
"          X X o # & 0 w r s D F H J J K K K K K K K K K K K K K K K K K K K K K K K K K K J J H F D s r w 0 & # o X X           ",
"          X X o # & 0 w r s D D F F G G H H G G G G G G G G G G G G G G G G G G G G H H G G F F D D s r w 0 & # o X X           ",
"          X X o # & 0 w r s D D D D D D D D D D D D D D D D D D D D D D D D D D D D D D D D D D D D s r w 0 & # o X X           ",
"            X o # & 0 q e r s s s s s s m m s s s s s s f s s s s s s s D m m s s f m m s s s s s s r e q 0 & # o X             ",
"            X o # # & 0 q w e e r s s f s s r r s s s r t t r r r r r r t f s s s f s s s s s r e e w q 0 & # # o X             ",
"              X # # # & & 0 q w e s s f D D f f f f t t t t t t t t t t t t f f t t D D f s s e w q 0 & & # # # X               ",
"                @ @ @ # # # & q w e s s m m s s D f f s s s s s D f f s s s s s s s m m s s e w q & # # # @ @ @                 ",
"                  X X X X # # 0 q e e s s s s s s p s s p p p p s s p p p p p s s s s s r e e q 0 # # X X X X                   ",
"                    X X X o # & 0 0 q w w u u i i i i a a d d d d d d a a i i i i u u w w q 0 0 & # o X X X                     ",
"                      X X X @ # & & & 0 q > > , , 5 7 7 8 9 9 9 9 9 9 8 7 7 5 , , > > q 0 & & & # @ X X X                       ",
"                          X @ @ @ # # # & ; ; : 3 3 6 h h k k k k k k h h 6 3 : : ; ; & # # # @ @ @ X                           ",
"                            o o o o o O $ = = < 1 2 h j j c c c c c c j j h 2 1 < - = $ O o o o o o                             ",
"                            o o O O $ $ % - < 1 2 h j k c c ^ ^ ^ ^ c c k j h 2 1 < - % $ $ O O o o                             ",
"                            O O $ $ % = - 1 2 g h j c c ^ ^ ^ ^ ^ ^ ^ ^ c c j h g 1 1 - = $ $ $ $ O                             ",
"                            O $ $ = - < 1 2 g j j c ~ ^ ) _ _ _ _ _ _ ) ^ ~ c j h g 2 1 < - = $ $ O                             ",
"                            O $ = = - < 1 2 g j k c ( ) _ ` ' ' ' ' ` _ ) ( c k j g 2 1 < - = = $ $                             ",
"                              $ $ = = - 1 1 2 h j c ( _ O.O.$.$.$.$.O.O._ ( c j h 2 1 1 - = = $ $                               ",
"                                $ $ = = - < 1 2 h x / o.O.$.5.5.5.5.$.O.o./ x h 2 1 < - = = $ $                                 ",
"                                      $ $ = - < 2 l / o.#.%.6.6.6.6.%.#.o./ l 2 < - = $ $                                       ",
"                                        $ $ = - 3 l b } @.%.5.6.6.5.%.@.} b l 3 - = $ $                                         ",
"                                        O O $ = : 4 z [ } +.#.#.#.#.+.} [ z 4 : = $ O O                                         ",
"                                          O O $ = 3 8 v b [ { { { { [ b v 8 3 = $ O O                                           ",
"                                                                                                                                ",
"                                                                                                                                ",
"                                                                                                                                ",
"                                                                                                                                ",
"                                                                                                                                ",
"                                                                                                                                ",
"                                                                                                                                "
};
